imgs/fist.svg

<?xml version="1.0"?>
<svg width="448" height="512" xmlns="http://www.w3.org/2000/svg" xmlns:svg="http://www.w3.org/2000/svg">
 <!--!Font Awesome Free 6.5.2 by @fontawesome - https://fontawesome.com License - https://fontawesome.com/license/free Copyright 2024 Fonticons, Inc.-->
 <g class="layer">
  <title>Layer 1</title>
  <path d="m144,64c0,-8.8 7.2,-16 16,-16s16,7.2 16,16c0,9.1 5.1,17.4 13.3,21.5s17.9,3.2 25.1,-2.3c2.7,-2 6,-3.2 9.6,-3.2c8.8,0 16,7.2 16,16c0,9.1 5.1,17.4 13.3,21.5s17.9,3.2 25.1,-2.3c2.7,-2 6,-3.2 9.6,-3.2c8.8,0 16,7.2 16,16c0,9.1 5.1,17.4 13.3,21.5s17.9,3.2 25.1,-2.3c2.7,-2 6,-3.2 9.6,-3.2c8.8,0 16,7.2 16,16l0,104c0,31.3 -20,58 -48,67.9c-9.6,3.4 -16,12.5 -16,22.6l0,133.5c0,13.3 10.7,24 24,24s24,-10.7 24,-24l0,-117.8c38,-20.1 64,-60.1 64,-106.2l0,-104c0,-35.3 -28.7,-64 -64,-64c-2.8,0 -5.6,0.2 -8.3,0.5c-10.9,-19.4 -31.8,-32.5 -55.7,-32.5c-2.8,0 -5.6,0.2 -8.3,0.5c-10.9,-19.4 -31.8,-32.5 -55.7,-32.5c-2.8,0 -5.6,0.2 -8.3,0.5c-10.9,-19.4 -31.8,-32.5 -55.7,-32.5c-35.3,0 -64,28.7 -64,64l0,64.3c-11.7,7.4 -22.5,16.4 -32,26.9l17.8,16.1l-17.8,-16.1l-9.4,10.5c-14.6,16.1 -22.6,37.1 -22.6,58.9l0,12.8c0,49.6 24.2,96.1 64.8,124.5l13.8,-19.7l-13.8,19.7l8.9,6.2c6.9,4.8 14.4,8.6 22.3,11.3l0,108.6c0,13.3 10.7,24 24,24s24,-10.7 24,-24l0,-128.1c0,-12.6 -9.8,-23.1 -22.4,-23.9c-7.3,-0.5 -14.3,-2.9 -20.3,-7.1l-13.1,18.7l13.1,-18.7l-8.9,-6.2c-27.8,-19.6 -44.4,-51.4 -44.4,-85.3l0,-12.8c0,-9.9 3.7,-19.4 10.3,-26.8l9.4,-10.5c3.8,-4.2 7.9,-8.1 12.3,-11.6l0,32.3c0,8.8 7.2,16 16,16s16,-7.2 16,-16l0,-65.7l0,-14.3l0,-64z" fill="#7d2ae8" id="svg_1"/>
 </g>
</svg>

<svg xmlns="http://www.w3.org/2000/svg" viewBox="0 0 448 512"><!--!Font Awesome Free 6.5.2 by @fontawesome - https://fontawesome.com License - https://fontawesome.com/license/free Copyright 2024 Fonticons, Inc.--><path d="M144 64c0-8.8 7.2-16 16-16s16 7.2 16 16c0 9.1 5.1 17.4 13.3 21.5s17.9 3.2 25.1-2.3c2.7-2 6-3.2 9.6-3.2c8.8 0 16 7.2 16 16c0 9.1 5.1 17.4 13.3 21.5s17.9 3.2 25.1-2.3c2.7-2 6-3.2 9.6-3.2c8.8 0 16 7.2 16 16c0 9.1 5.1 17.4 13.3 21.5s17.9 3.2 25.1-2.3c2.7-2 6-3.2 9.6-3.2c8.8 0 16 7.2 16 16V264c0 31.3-20 58-48 67.9c-9.6 3.4-16 12.5-16 22.6V488c0 13.3 10.7 24 24 24s24-10.7 24-24V370.2c38-20.1 64-60.1 64-106.2V160c0-35.3-28.7-64-64-64c-2.8 0-5.6 .2-8.3 .5C332.8 77.1 311.9 64 288 64c-2.8 0-5.6 .2-8.3 .5C268.8 45.1 247.9 32 224 32c-2.8 0-5.6 .2-8.3 .5C204.8 13.1 183.9 0 160 0C124.7 0 96 28.7 96 64v64.3c-11.7 7.4-22.5 16.4-32 26.9l17.8 16.1L64 155.2l-9.4 10.5C40 181.8 32 202.8 32 224.6v12.8c0 49.6 24.2 96.1 64.8 124.5l13.8-19.7L96.8 361.9l8.9 6.2c6.9 4.8 14.4 8.6 22.3 11.3V488c0 13.3 10.7 24 24 24s24-10.7 24-24V359.9c0-12.6-9.8-23.1-22.4-23.9c-7.3-.5-14.3-2.9-20.3-7.1l-13.1 18.7 13.1-18.7-8.9-6.2C96.6 303.1 80 271.3 80 237.4V224.6c0-9.9 3.7-19.4 10.3-26.8l9.4-10.5c3.8-4.2 7.9-8.1 12.3-11.6V208c0 8.8 7.2 16 16 16s16-7.2 16-16V142.3 128 64z"/></svg>
